app/images/main/close-svg.svg

<svg width="44" height="44" viewBox="0 0 44 44" fill="none" xmlns="http://www.w3.org/2000/svg">
<circle cx="22" cy="22" r="22" fill="#2E2E3A"/>
<path d="M23.645 21.9999L28.6617 16.9949C28.8813 16.7752 29.0048 16.4772 29.0048 16.1666C29.0048 15.8559 28.8813 15.5579 28.6617 15.3382C28.442 15.1185 28.144 14.9951 27.8333 14.9951C27.5226 14.9951 27.2247 15.1185 27.005 15.3382L22 20.3549L16.995 15.3382C16.7753 15.1185 16.4773 14.9951 16.1667 14.9951C15.856 14.9951 15.558 15.1185 15.3383 15.3382C15.1186 15.5579 14.9952 15.8559 14.9952 16.1666C14.9952 16.4772 15.1186 16.7752 15.3383 16.9949L20.355 21.9999L15.3383 27.0049C15.229 27.1133 15.1422 27.2424 15.083 27.3845C15.0237 27.5267 14.9932 27.6792 14.9932 27.8332C14.9932 27.9872 15.0237 28.1397 15.083 28.2819C15.1422 28.4241 15.229 28.5531 15.3383 28.6616C15.4468 28.7709 15.5758 28.8577 15.718 28.9169C15.8602 28.9762 16.0126 29.0067 16.1667 29.0067C16.3207 29.0067 16.4732 28.9762 16.6153 28.9169C16.7575 28.8577 16.8865 28.7709 16.995 28.6616L22 23.6449L27.005 28.6616C27.1134 28.7709 27.2425 28.8577 27.3847 28.9169C27.5268 28.9762 27.6793 29.0067 27.8333 29.0067C27.9873 29.0067 28.1398 28.9762 28.282 28.9169C28.4242 28.8577 28.5532 28.7709 28.6617 28.6616C28.771 28.5531 28.8578 28.4241 28.917 28.2819C28.9763 28.1397 29.0068 27.9872 29.0068 27.8332C29.0068 27.6792 28.9763 27.5267 28.917 27.3845C28.8578 27.2424 28.771 27.1133 28.6617 27.0049L23.645 21.9999Z" fill="#CE1E2E"/>
</svg>

<svg xmlns="http://www.w3.org/2000/svg" viewBox="0 0 44 44"><defs><style>.cls-1,.cls-2{fill:#10c35b;}.cls-1{opacity:0.26;}</style></defs><title>close-svg</title><g id="Слой_2" data-name="Слой 2"><g id="Слой_1-2" data-name="Слой 1"><circle class="cls-1" cx="22" cy="22" r="22"/><path class="cls-2" d="M23.64,22l5-5A1.17,1.17,0,0,0,27,15.34l-5,5-5-5a1.13,1.13,0,0,0-.82-.34,1.17,1.17,0,0,0-.83,2l5,5-5,5a1.22,1.22,0,0,0-.26.38,1.2,1.2,0,0,0-.09.45,1.13,1.13,0,0,0,.09.45,1.25,1.25,0,0,0,.64.64,1.13,1.13,0,0,0,.45.09,1.2,1.2,0,0,0,.45-.09,1.08,1.08,0,0,0,.37-.26l5-5,5,5a1.22,1.22,0,0,0,.38.26,1.2,1.2,0,0,0,.45.09,1.13,1.13,0,0,0,.45-.09,1.25,1.25,0,0,0,.64-.64,1.13,1.13,0,0,0,.09-.45,1.2,1.2,0,0,0-.09-.45,1.22,1.22,0,0,0-.26-.38Z"/></g></g></svg>
